app/icons/club/card-popup-icon-2.svg

<svg xmlns="http://www.w3.org/2000/svg" viewBox="0 0 37.1 61.5"><defs><style>.cls-1{fill:#6fab48}</style></defs><title>card-popup-icon-2</title><path class="cls-1" d="M22.51 5.94h-7.92a.74.74 0 0 0 0 1.48h7.92a.74.74 0 0 0 0-1.48zm0 47.65h-7.92a.74.74 0 0 0 0 1.48h7.92a.74.74 0 0 0 0-1.48z"/><path class="cls-1" d="M32.4 0H4.7A4.7 4.7 0 0 0 0 4.7v52.1a4.7 4.7 0 0 0 4.7 4.7h27.7a4.7 4.7 0 0 0 4.7-4.7V4.7A4.7 4.7 0 0 0 32.4 0zm3.22 56.8A3.22 3.22 0 0 1 32.4 60H4.7a3.22 3.22 0 0 1-3.22-3.2v-7.17h34.14zm0-8.65H1.48v-34.8h34.14zm0-36.28H1.48V4.7A3.22 3.22 0 0 1 4.7 1.48h27.7a3.22 3.22 0 0 1 3.22 3.22z"/><path class="cls-1" d="M29.19 21.46a.71.71 0 0 0-1 0L8.62 41a.71.71 0 0 0 0 1 .74.74 0 0 0 1 0l19.57-19.52a.72.72 0 0 0 0-1.02zm-2.94 11.95a4.82 4.82 0 1 0 3.42 8.22 4.75 4.75 0 0 0 1.41-3.41 4.84 4.84 0 0 0-1.41-3.42 4.74 4.74 0 0 0-3.42-1.39zm2.42 7.22a3.41 3.41 0 1 1 1-2.39 3.43 3.43 0 0 1-1 2.39zM11.53 20.5a4.84 4.84 0 0 0-3.42 1.41 4.84 4.84 0 1 0 3.42-1.41zm2.41 7.23a3.4 3.4 0 0 1-4.82 0 3.44 3.44 0 0 1 0-4.81 3.41 3.41 0 1 1 4.82 4.82z"/></svg>

<svg xmlns="http://www.w3.org/2000/svg" viewBox="0 0 37.1 61.5"><defs><style>.cls-1{fill:#6fab48;}</style></defs><title>card-popup-icon-2</title><g id="Слой_2" data-name="Слой 2"><g id="Слой_1-2" data-name="Слой 1"><path class="cls-1" d="M22.51,5.94H14.59a.74.74,0,0,0,0,1.48h7.92a.74.74,0,0,0,0-1.48Z"/><path class="cls-1" d="M22.51,53.59H14.59a.74.74,0,0,0,0,1.48h7.92a.74.74,0,0,0,0-1.48Z"/><path class="cls-1" d="M32.4,0H4.7A4.7,4.7,0,0,0,0,4.7V56.8a4.7,4.7,0,0,0,4.7,4.7H32.4a4.7,4.7,0,0,0,4.7-4.7V4.7A4.7,4.7,0,0,0,32.4,0Zm3.22,56.8A3.22,3.22,0,0,1,32.4,60H4.7A3.22,3.22,0,0,1,1.48,56.8V49.63H35.62Zm0-8.65H1.48V13.35H35.62Zm0-36.28H1.48V4.7A3.22,3.22,0,0,1,4.7,1.48H32.4A3.22,3.22,0,0,1,35.62,4.7Z"/><path class="cls-1" d="M29.19,21.46a.71.71,0,0,0-1,0L8.62,41a.71.71,0,0,0,0,1,.74.74,0,0,0,1,0L29.19,22.48A.72.72,0,0,0,29.19,21.46Z"/><path class="cls-1" d="M26.25,33.41a4.82,4.82,0,1,0,3.42,8.22,4.75,4.75,0,0,0,1.41-3.41,4.84,4.84,0,0,0-1.41-3.42A4.74,4.74,0,0,0,26.25,33.41Zm2.42,7.22a3.41,3.41,0,1,1,1-2.39A3.43,3.43,0,0,1,28.67,40.63Z"/><path class="cls-1" d="M11.53,20.5a4.84,4.84,0,0,0-3.42,1.41,4.84,4.84,0,1,0,3.42-1.41Zm2.41,7.23a3.4,3.4,0,0,1-4.82,0,3.44,3.44,0,0,1,0-4.81h0a3.41,3.41,0,1,1,4.82,4.82Z"/></g></g></svg>
